!!!!SEGMENT: pl-wnifc--13846--031_anonim--31-a-gdziez-sie-podzialy-pozadane-gody.krn
!!!kernsource:
!!!cenid: 18xx:3253
!!!COM: Anonim
!!!COM-rismid: pe30004985
!!!CDT:
!!!CNT:
!!!GTL: Pieśni polskie i ruskie ludu galicyjskiego
!!!OTL: 31. A gdziez się podziały poządane gody
!!!PDT: 1833
!!!AGN:
!!!SMS-siglum: PL-Wnifc
!!!SMS-shelfmark: 13846
!!!SMS-shelfwork: 031 G
!!!SMS-variant:
!!!SMS-altvar:
!!!NIFC-rismid: 1001036810
!!!URL-scan: http://repozytorium.nifc.pl/skany/pl-wnifc-nut--13846
!!!ONB-nifc:
!!!OMD: Mazur.
!!!key: G
**kern	**kern	**dynam	**kern	**text
*part2	*part2	*part2	*part1	*part1
*staff3	*staff2	*	*staff1	*staff1
*I"Fortepian	*I"Fortepian	*	*I"Głos	*
*Ipiano	*Ipiano	*	*Ivox	*
*ICklav	*ICklav	*	*ICvox	*
*IGacmp	*IGacmp	*	*IGsolo	*
*clefF4	*clefG2	*	*clefG2	*
*k[f#]	*k[f#]	*	*k[f#]	*
*G:	*G:	*	*G:	*
*M3/8	*M3/8	*	*M3/8	*
=1	=1	=1	=1	=1
!	!	!	!LO:TX:a:t=D.b.b.2.	!
*^	*	*	*	*
4.GG\	8GG^>/L	4g/	.	4g/	A
.	(8BB/	.	.	.	.
.	.	8qa/	.	.	.
.	8D^>/J)	(16g/LL	.	(16g/LL	gdziez
.	.	16f#/JJ)	.	16f#/JJ)	.
=2	=2	=2	=2	=2	=2
4.GG\	8BB^>/L	(16g/LL	.	16g/	si&#281;
.	.	16a/JJ)	.	16a/	po-
.	(8D/	8b/L	.	8b/	-dzia-
.	(<8G^>/J)	8b/J	.	8b/	-&#322;y
!!LO:LB:g=original
=3	=3	=3	=3	=3	=3
4.GG\)	8C^>/L)	4e/	.	4e/	po-
.	(8E/	.	.	.	.
.	8G^>/J)	8e/	.	8e/	-z&#261;-
*v	*v	*	*	*	*
=4	=4	=4	=4	=4
(<[<4GG^>/ 4C/ [>4D/	16a/LL	.	16a/	-da-
.	16g/JJ	.	16g/	-ne
.	8f#/L	.	8f#/	go-
8GG/]) 8BB/ 8D/]	8g/J	.	8g/	-dy,
=5	=5	=5	=5	=5
*^	*	*	*	*
4.GG\	8GG^>/L	4g/	.	4g/	kie-
.	(8BB/	.	.	.	.
.	.	8qa/	.	.	.
.	8D^>/J)	(16g/LL	.	(16g/LL	-dym
.	.	16f#/JJ)	.	16f#/JJ)	.
!!LO:LB:g=original
=6	=6	=6	=6	=6	=6
4.GG\	8BB/L	16g/LL	.	16g/	je-
.	.	16a/JJ	.	16a/	-sce
.	8D/	8b/L	.	8b/	nie
.	8G/J	8b/J	.	8b/	raz
=7	=7	=7	=7	=7	=7
4.GG\	8GG/L	4e/	.	4e/	u-
.	8C/	.	.	.	.
.	8G/J	8e/	.	8e/	-zy-
*v	*v	*	*	*	*
!!LO:LB:g=original
=8	=8	=8	=8	=8
8GG/ 8C/ 8D/	16a/LL	.	16a/	-wa&#322;
.	16g/JJ	.	16g/	swo-
8GG/ 8C/ 8D/	8f#/L	.	8f#/	-bo-
8GG/ 8BB/ 8D/	8g/J	.	8g/	-dy!
==9	==9	==9	==9	==9
*^	*	*	*	*
4.DD\	8DD/L	16f#/LL 16a/	.	16a/	go-
.	.	16e/JJ 16g/	.	16g/	-spo-
.	8D/	8d/L 8f#/	.	8f#/	-da-
.	8D/J	8e/J 8g/	.	8g/	-zum
!!LO:PB:g=original
=10	=10	=10	=10	=10	=10
4.DD\	8DD/L	16f#/LL 16a/	.	16a/	wier-
.	.	16e/JJ 16g/	.	16g/	-nie
.	8D/	8d/L 8f#/	.	8f#/	s&#322;u-
.	8D/J	8e/J 8g/	.	8g/	-zy&#322;,
=11	=11	=11	=11	=11	=11
4.DD\	8DD/L	16f#/LL 16a/	.	16a/	i
.	.	16g/JJ 16b/	.	16b/	tak
.	8D/	8a/L 8cc/	.	8cc/	so-
.	8D/J	8g/J 8b/	.	8b/	-bie
=12	=12	=12	=12	=12	=12
4.DD\	8DD/L	16b\LL 16dd\	.	16dd\	za-
.	.	16a\JJ 16cc\	.	16cc\	-wdy
.	8D/J	8g/ 8b/	.	8b/	wró-
!!LO:LB:g=original
=-	=-	=-	=-	=-	=-
.	8D/	8f#/ 8a/	.	8a/	-zył,
*v	*v	*	*	*	*
=13	=13	=13	=13	=13
*^	*	*	*	*
4.GG\	8GG/L	4g/	.	4g/	ze
.	8BB/	.	.	.	.
.	8D/J	16g/LL	.	(<16g/LL	mi
.	.	16f#/JJ	.	16f#/JJ)	.
=14	=14	=14	=14	=14	=14
4GG\	8BB/L	16g/LL	.	16g/	da-
.	.	16a/JJ	.	16a/	-dz&#261;
.	8D/	8b/L	.	8b/	o-
8ryy	8F#/J	8cc/J	.	8cc/	-n&#281;,
!!LO:LB:g=original
=15	=15	=15	=15	=15	=15
4.GG\	8C/L	4e/	.	4e/	Do-
.	8E/	.	.	.	.
.	8G/J	8e/	.	8e/	-ro-
=16	=16	=16	=16	=16	=16
4GG\	4C/ 4D/	16a/LL	.	16a/	-tk&#281;
.	.	16g/JJ	.	16g/	za
.	.	8f#/L	.	8f#/	zo-
8GG\ 8BB\	8D/	8g/J	.	8g/	-n&#281;
*v	*v	*	*	*	*
!!LO:LB:g=original
==	==	==	==	==
*-	*-	*-	*-	*-
!!!system-decoration: s1,{(s2,s3)}
!!!RDF**kern: < = below
!!!RDF**kern: > = above
!!!ENC: Marta Chmielewska
!!!END: 2021-11-10
